modules/hawcons-stroke/icons/face-open-mouth.svg

<?xml version="1.0" encoding="UTF-8" standalone="no"?>
<svg width="32px" height="32px" viewBox="0 0 32 32" version="1.1" xmlns="http://www.w3.org/2000/svg" xmlns:xlink="http://www.w3.org/1999/xlink" xmlns:sketch="http://www.bohemiancoding.com/sketch/ns">
    <!-- Generator: Sketch 3.0.3 (7891) - http://www.bohemiancoding.com/sketch -->
    <title>icon 9 face open mouth</title>
    <desc>Created with Sketch.</desc>
    <defs></defs>
    <g id="Page-1" stroke="none" stroke-width="1" fill="none" fill-rule="evenodd" sketch:type="MSPage">
        <g id="icon-9-face-open-mouth" sketch:type="MSArtboardGroup" fill="#929292">
            <path d="M16.5,29 C23.4035597,29 29,23.4035597 29,16.5 C29,9.59644029 23.4035597,4 16.5,4 C9.59644029,4 4,9.59644029 4,16.5 C4,23.4035597 9.59644029,29 16.5,29 L16.5,29 Z M16.5,28 C22.8512749,28 28,22.8512749 28,16.5 C28,10.1487251 22.8512749,5 16.5,5 C10.1487251,5 5,10.1487251 5,16.5 C5,22.8512749 10.1487251,28 16.5,28 L16.5,28 Z M12,14 C12.5522848,14 13,13.5522848 13,13 C13,12.4477152 12.5522848,12 12,12 C11.4477152,12 11,12.4477152 11,13 C11,13.5522848 11.4477152,14 12,14 L12,14 Z M21,14 C21.5522848,14 22,13.5522848 22,13 C22,12.4477152 21.5522848,12 21,12 C20.4477152,12 20,12.4477152 20,13 C20,13.5522848 20.4477152,14 21,14 L21,14 Z M16.5,24 C18.9852815,24 21,22.8807119 21,21.5 C21,20.1192881 18.9852815,19 16.5,19 C14.0147185,19 12,20.1192881 12,21.5 C12,22.8807119 14.0147185,24 16.5,24 L16.5,24 Z M16.5,23 C18.4329967,23 20,22.3284272 20,21.5 C20,20.6715728 18.4329967,20 16.5,20 C14.5670033,20 13,20.6715728 13,21.5 C13,22.3284272 14.5670033,23 16.5,23 L16.5,23 Z" id="face-open-mouth" sketch:type="MSShapeGroup"></path>
        </g>
    </g>
</svg>

<svg width="32" height="32" xmlns="http://www.w3.org/2000/svg"><path d="M16.5 29C23.404 29 29 23.404 29 16.5S23.404 4 16.5 4 4 9.596 4 16.5 9.596 29 16.5 29zm0-1C22.851 28 28 22.851 28 16.5S22.851 5 16.5 5 5 10.149 5 16.5 10.149 28 16.5 28zM12 14a1 1 0 1 0 0-2 1 1 0 0 0 0 2zm9 0a1 1 0 1 0 0-2 1 1 0 0 0 0 2zm-4.5 10c2.485 0 4.5-1.12 4.5-2.5S18.985 19 16.5 19 12 20.12 12 21.5s2.015 2.5 4.5 2.5zm0-1c1.933 0 3.5-.672 3.5-1.5S18.433 20 16.5 20s-3.5.672-3.5 1.5 1.567 1.5 3.5 1.5z" fill="#929292" fill-rule="evenodd"/></svg>
